X:1
T:Mazurka : A
E:12
Z:Roger Ngaret (94-95)
R:mazurka
C:Trad.
S:
A:Bretagne
M:3/4
L:1/16
K:G
Q:1/4=130
E2 F2E2 | "Em"B4 B2c2 d2e2 | B6B2 c2B2 |1 "D"A4 B2A2 G2F2 | "Em"G4 E2 :|2\
(3A2"D"B2A2 B2A2 G2F2 | "Em"E8 |: e2d2 | "Am"c4 c2B2 c2d2 |\
e6e2 d2c2 |1 "Em"B4 B2A2 B2c2 | B2B2 E2B2 :|2 B2c2 B2G2 F2G2 | "D"F4 E2 |]
